X:1
T:English Suite III Allemande
T:BWV 808
T:J. S. Bach
%%score { ( 1 3 5 ) | ( 2 4 ) }
L:1/8
M:4/4
K:Bb
V:1 treble nm="Harp"
V:3 treble 
V:5 treble 
V:2 bass 
V:4 bass 
V:1
 B/ | B2- B/g/^f/g/ c2- c/a/g/a/ | d/G/B/d/ g/b/a/g/ ^f/g/a/e/ d/c/B/A/ | %3
 B2- B/B/c/e/ A2- A/A/B/d/ | G2- G/G/A/c/ ^F/A/c/d/ G/B/d/e/ | %5
 A/c/d/_g/ B/d/g/=g/ a/g/_g/=e/ d/_e/f/4e/4d/4e/4 | f4 d/e/f/4e/4d/4e/4 f/_a/g/f/ | %7
 e/c/e/g/ c'/b/a/g/ ^f/g/a/e/ d/c/B/A/ | B4 A4- | A/D/F/A/ d/f/=e/d/ ^c/d/e/B/ A/G/F/=E/ | %10
 ^F/G/A/E/ D/C/B,/A,/ B,/C/D/[I:staff +1]_A,/ G,/F,/E,/D,/ | %11
[I:staff -1] z2 z d/4^c/4d/4c/4 d/=e/f/b/ f/4e/4f/4e/4f/4e/4d/ | d4- d7/2 B/ | %13
 B2- B/g/^f/g/ c2- c/a/g/a/ | d/G/B/d/ g/b/a/g/ ^f/g/a/e/ d/c/B/A/ | B2- B/B/c/e/ A2- A/A/B/d/ | %16
 G2- G/G/A/c/ ^F/A/c/d/ G/B/d/e/ | A/c/d/_g/ B/d/g/=g/ a/g/_g/=e/ d/_e/f/4e/4d/4e/4 | %18
 f4 d/e/f/4e/4d/4e/4 f/_a/g/f/ | e/c/e/g/ c'/b/a/g/ ^f/g/a/e/ d/c/B/A/ | B4 A4- | %21
 A/D/F/A/ d/f/=e/d/ ^c/d/e/B/ A/G/F/=E/ | %22
 ^F/G/A/E/ D/C/B,/A,/ B,/C/D/[I:staff +1]_A,/ G,/F,/E,/D,/ | %23
[I:staff -1] z2 z d/4^c/4d/4c/4 d/=e/f/b/ f/4e/4f/4e/4f/4e/4d/ | d4- d7/2 A/ | %25
 A/a/^f/d/ A/^F/G/A/ =B/A/G/c/ d/e/=f/g/ | f/4e/4f/4e/4d/c/ g/4f/4gg/ g/B/A/c/ c/4B/4A/G/=e/ | %27
{=e} f/4e/4f_e/ d/c/B/A/ G/F/G/B/ c/d/e/c/ | B/A/G/F/ f>A B/e/d/c/ d/4c/4d/4c/4d/4c/4B/ | %29
 B2- B/d/c/d/ E/D/C- C/A/B/c/ | ^F/d/A/F/ D/^C/D/=E/ F/E/D/G/ A/B/c/d/ | %31
 B/A/G/A/ B/c/d/e/ fB _a/4g/4ab/ | g4 f2- f/e/d/c/ | %33
 c/4=B/4c/4B/4c/4B/4c/4B/4 e/4d/4ee/ e/d/c/_B/ A/B/c/G/ | ^F/G/A A/4G/4AA/ A/G/F/G/ c>c | %35
 c2 z ^F G/A/B/e/ A>[_G=G] | G4- G7/2 A/ | A/a/^f/d/ A/^F/G/A/ =B/A/G/c/ d/e/=f/g/ | %38
 f/4e/4f/4e/4d/c/ g/4f/4gg/ g/B/A/c/ c/4B/4A/G/=e/ |{=e} f/4e/4f_e/ d/c/B/A/ G/F/G/B/ c/d/e/c/ | %40
 B/A/G/F/ f>A B/e/d/c/ d/4c/4d/4c/4d/4c/4B/ | B2- B/d/c/d/ E/D/C- C/A/B/c/ | %42
 ^F/d/A/F/ D/^C/D/=E/ F/E/D/G/ A/B/c/d/ | B/A/G/A/ B/c/d/e/ fB _a/4g/4ab/ | g4 f2- f/e/d/c/ | %45
 c/4=B/4c/4B/4c/4B/4c/4B/4 e/4d/4ee/ e/d/c/_B/ A/B/c/G/ | ^F/G/A A/4G/4AA/ A/G/F/G/ c>c | %47
 c2 z ^F G/A/B/e/ A>[_G=G] | G4- G7/2 z/ |] %49
V:2
 z/ | z/ G,,/B,,/D,/ G,/B,/A,/G,/ ^F,/G,/A,/E,/ D,/C,/B,,/A,,/ | %2
 B,,2- B,,/D,/C,/E,/ D,2- D,/=E,/^F,/D,/ | G,3 E, F,3 D, | E,3 C, D,4- | D,C, B,,G,, D,, z z2 | %6
 G,/D,/G,/=B,/ D/E/D/C/ B,/C/D/_A,/ G,/F,/E,/D,/ | C,2- C,/C,/E,/G,/ CC,B,,A,, | %8
 z/ G,/B,/D/ G/F/E/D/ ^C/D/=E/B,/ A,/G,/F,/=E,/ | D,2 z A, G,2 =E,2 | D,C,B,,A,, G,,F,,E,,D,, | %11
 ^C,/D,/=E,/B,,/ A,,/G,,/F,,/=E,,/ F,,G,,A,,A,, | D,,2 z z/ ^C/ D7/2 z/ | %13
 z/ G,,/B,,/D,/ G,/B,/A,/G,/ ^F,/G,/A,/E,/ D,/C,/B,,/A,,/ | %14
 B,,2- B,,/D,/C,/E,/ D,2- D,/=E,/^F,/D,/ | G,3 E, F,3 D, | E,3 C, D,4- | D,C, B,,G,, D,, z z2 | %18
 G,/D,/G,/=B,/ D/E/D/C/ B,/C/D/_A,/ G,/F,/E,/D,/ | C,2- C,/C,/E,/G,/ CC,B,,A,, | %20
 z/ G,/B,/D/ G/F/E/D/ ^C/D/=E/B,/ A,/G,/F,/=E,/ | D,2 z A, G,2 =E,2 | D,C,B,,A,, G,,F,,E,,D,, | %23
 ^C,/D,/=E,/B,,/ A,,/G,,/F,,/=E,,/ F,,G,,A,,A,, | D,,2 z z/ ^C/ D7/2 z/ | %25
 D,2- D,/A,/B,/C/ z C2 =B, | C,/C/G,/E,/ C,/=B,,/C,/D,/ =E,/D,/C,/F,/ G,/A,/B,/C/ | %27
 A,/G,/F, B,D, E,E,,E,C, | F,/F,,/A,,/C,/ E,/G,/F,/E,/ D,/C,/B,,/E,/ F,F,, | %29
 B,,/B,/F,/D,/ B,,/G,,/A,,/B,,/ C,/B,,/A,,/D,/ =E,/^F,/G,/A,/ | D,2- D,/G,/^F,/G,/ z G,2 F, | %31
 G,/G,,/B,,/D,/ G,/G,/F,/E,/ D,/E,/F,/C,/ B,,/_A,,/G,,/F,,/ | E,,2 E,2- E,/G/F/E/ D/E/F/_A,/ | %33
 G,/F,/E,/D,/ C,/D,/E,/G,,/ ^F,,G,,C,A,, | D, z/ E/ D/C/B,/A,/ B,/C/D/B,/ A,/G,/^F,/=E,/ | %35
 ^F,/G,/A,/E,/ D,/C,/B,,/A,,/ B,,C, D,/4C,/4D,D,,/ | G,,2 z/ z ^F,/ G,7/2 z/ | %37
 D,2- D,/A,/B,/C/ z C2 =B, | C,/C/G,/E,/ C,/=B,,/C,/D,/ =E,/D,/C,/F,/ G,/A,/B,/C/ | %39
 A,/G,/F, B,D, E,E,,E,C, | F,/F,,/A,,/C,/ E,/G,/F,/E,/ D,/C,/B,,/E,/ F,F,, | %41
 B,,/B,/F,/D,/ B,,/G,,/A,,/B,,/ C,/B,,/A,,/D,/ =E,/^F,/G,/A,/ | D,2- D,/G,/^F,/G,/ z G,2 F, | %43
 G,/G,,/B,,/D,/ G,/G,/F,/E,/ D,/E,/F,/C,/ B,,/_A,,/G,,/F,,/ | E,,2 E,2- E,/G/F/E/ D/E/F/_A,/ | %45
 G,/F,/E,/D,/ C,/D,/E,/G,,/ ^F,,G,,C,A,, | D, z/ E/ D/C/B,/A,/ B,/C/D/B,/ A,/G,/^F,/=E,/ | %47
 ^F,/G,/A,/E,/ D,/C,/B,,/A,,/ B,,C, D,/4C,/4D,D,,/ | G,,2 z/ z ^F,/ G,7/2 z/ |] %49
V:3
 x/ | G2 z2 A2 z2 | x8 | z/ G/F/D/ E2- E/F/E/C/ D2- | D/E/D/B,/ C2- C[I:staff +1]A,B,G, | %5
 ^F,A, D,2- D,D- D/C/=B,/A,/ |[I:staff -1] [=Bd]2 B/c/d/4c/4B/4c/4 z4 | x8 | x8 | x8 | x8 | %11
 z4 d2 ^c2 | z/ c/B/A/ G/A/B A7/2 z/ | G2 z2 A2 z2 | x8 | z/ G/F/D/ E2- E/F/E/C/ D2- | %16
 D/E/D/B,/ C2- C[I:staff +1]A,B,G, | ^F,A, D,2- D,D- D/C/=B,/A,/ | %18
[I:staff -1] [=Bd]2 B/c/d/4c/4B/4c/4 z4 | x8 | x8 | x8 | x8 | z4 d2 ^c2 | z/ c/B/A/ G/A/B A7/2 x/ | %25
 x8 | z/[I:staff +1] C/[I:staff -1] z z2 z4 | x8 | z4 z2 A2 | x8 | x8 | x8 | %32
 z/ f/e/d/ c/d/e/B/ A2 _A2 | _A/A/G- G2 =A z z2 | z4 z2 z/ B/A/G/ | A2 z2 G2 ^F2 | %36
 z/ F/E/D/ C/D/E D7/2 z/ | x8 | z/[I:staff +1] C/[I:staff -1] z z2 z4 | x8 | z4 z2 A2 | x8 | x8 | %43
 x8 | z/ f/e/d/ c/d/e/B/ A2 _A2 | _A/A/G- G2 =A z z2 | z4 z2 z/ B/A/G/ | A2 z2 G2 ^F2 | %48
 z/ F/E/D/ C/D/E D7/2 x/ |] %49
V:4
 x/ | x8 | x8 | x8 | x8 | x8 | x8 | z4 z D,=E,^F, | G,,4- G,,4 | F,,2 z F, =E,D,^C,A,, | %10
 D, z z2 z4 | ^C,,2 z2 z4 | z4 z/ ^F,/G,/A,/ D,3/2 z/ | x8 | x8 | x8 | x8 | x8 | x8 | %19
 z4 z D,=E,^F, | G,,4- G,,4 | F,,2 z F, =E,D,^C,A,, | D, z z2 z4 | ^C,,2 z2 z4 | %24
 z4 z/ ^F,/G,/A,/ D,3/2 x/ | z4 F,E,F,G, | x8 | x8 | x8 | x8 | z4 C,B,,C,D, | G,/ z/ z z2 z4 | x8 | %33
 x8 | x8 | x8 | z4 z/ B,,/C,/D,/ G,,3/2 z/ | z4 F,E,F,G, | x8 | x8 | x8 | x8 | z4 C,B,,C,D, | %43
 G,/ z/ z z2 z4 | x8 | x8 | x8 | x8 | z4 z/ B,,/C,/D,/ G,,3/2 x/ |] %49
V:5
 x/ | x8 | x8 | x8 | x8 | x8 | x8 | x8 | x8 | x8 | x8 | x8 | z4 ^F7/2 z/ | x8 | x8 | x8 | x8 | x8 | %18
 x8 | x8 | x8 | x8 | x8 | x8 | z4 ^F7/2 x/ | x8 | x8 | x8 | x8 | x8 | x8 | x8 | x8 | x8 | x8 | x8 | %36
 z4 B,7/2 z/ | x8 | x8 | x8 | x8 | x8 | x8 | x8 | x8 | x8 | x8 | x8 | z4 B,7/2 x/ |] %49

